assets/Kick scooter/Flat/kick_scooter_flat.svg

<svg width="32" height="32" viewBox="0 0 32 32" fill="none" xmlns="http://www.w3.org/2000/svg">
<path d="M8 5C7.44772 5 7 5.44772 7 6C7 6.55228 6.97259 7.45895 7.52487 7.45895L8.90094 7H12C12.5523 7 13 6.55228 13 6C13 5.44772 12.5523 5 12 5H8ZM10 26C10 28.2092 8.20914 30 6 30C3.79086 30 2 28.2092 2 26C2 23.7909 3.79086 22 6 22C8.20914 22 10 23.7909 10 26ZM8 26C8 24.8954 7.10457 24 6 24C4.89543 24 4 24.8954 4 26C4 27.1046 4.89543 28 6 28C7.10457 28 8 27.1046 8 26ZM30 26C30 28.2092 28.2091 30 26 30C23.7909 30 22 28.2092 22 26C22 23.7909 23.7909 22 26 22C28.2091 22 30 23.7909 30 26ZM28 26C28 24.8954 27.1046 24 26 24C24.8954 24 24 24.8954 24 26C24 27.1046 24.8954 28 26 28C27.1046 28 28 27.1046 28 26Z" fill="#1C1C1C"/>
<path d="M7.00118 5.93842C7.00039 5.95966 7 5.98022 7 5.99999C7 6.55228 7.44772 6.99999 8 6.99999H8.905L7.90674 16.9825L13.5734 23.9009C14.1432 24.5966 14.995 24.9999 15.8942 24.9999H26C26.5523 24.9999 27 25.4477 27 25.9999C27 26.5522 26.5523 26.9999 26 26.9999H15.8942C14.3955 26.9999 12.9758 26.3276 12.0261 25.1682L7.62546 19.7954L6.99505 26.0994C6.9401 26.649 6.45005 27.0499 5.90051 26.995C5.35097 26.94 4.95002 26.45 5.00498 25.9004L7.00118 5.93842Z" fill="#26C9FC"/>
</svg>

<svg xmlns="http://www.w3.org/2000/svg" width="32" height="32" fill="none"><path fill="#1C1C1C" d="M8 5a1 1 0 0 0-1 1c0 .552-.027 1.459.525 1.459L8.9 7H12a1 1 0 1 0 0-2H8Zm2 21a4 4 0 1 1-8 0 4 4 0 0 1 8 0Zm-2 0a2 2 0 1 0-4 0 2 2 0 0 0 4 0Zm22 0a4 4 0 1 1-8 0 4 4 0 0 1 8 0Zm-2 0a2 2 0 1 0-4 0 2 2 0 0 0 4 0Z"/><path fill="#26C9FC" d="M7.001 5.938 7 6a1 1 0 0 0 1 1h.905l-.998 9.983 5.666 6.918A3 3 0 0 0 15.894 25H26a1 1 0 0 1 0 2H15.894a5 5 0 0 1-3.868-1.832l-4.4-5.373-.631 6.304a1 1 0 1 1-1.99-.199L7.001 5.938Z"/></svg>
